X: 1
T: String Quartet in G Major opus 76 no 1 mvt 3
C: Franz Joseph Haydn
%%abc-version 2.0
%%abcx-abcm2ps-target-version 5.9.1 (29 Sep 2008)
%%abc-creator hum2abc beta
%%abcx-conversion-date 2021/02/14 14:38:18
%%abc-copyright Copyright (c) 1994, 2000 Center for Computer Assisted Research in the Humanities
%%abc-edited-by Frances Bennion
%%abcx-initial-encoding-date 1997/04/15
%%gracespace 0 6 6
%%humdrum-veritas 2724145657
%%humdrum-veritas-data 964909245
%%linebreak <none>
%%barnumbers 0
L: 1/4
M: 3/4
N: Derived from op76n1-03.krn
Q: "Menuetto: Presto"
%%staves [1 2 3 4]
V: 1
V: 2
V: 3 clef=alto
V: 4 clef=bass
K: G
[V:1]z2 D [I:setbarnb1] |
[V:2]z2 z |
[V:3]z2 z |
[V:4]z2 z |
[V:1]G G E |
[V:2]D z2 |
[V:3]B, z2 |
[V:4]G, z2 |
[V:1]A A D |
[V:2]E z2 |
[V:3]C z2 |
[V:4]C, z2 |
[V:1]c c ^A |
[V:2]F z2 |
[V:3]A, z2 |
[V:4]D, z2 |
[V:1]B B D |
[V:2]G z2 |
[V:3]D z2 |
[V:4]G,, z2 |
[V:1]^A A B |
[V:2]E z F |
[V:3]^C z B, |
[V:4]^C z D |
[V:1]e e d |
[V:2]^c z B |
[V:3]F, z D |
[V:4]^A, z B, |
[V:1]g g f |
[V:2]^c c d |
[V:3]E E D |
[V:4]A, A, D |
[V:1]b/b/ b/b/ a |
[V:2][d/g/][g/d/][g/d/][g/d/] [fd] |
[V:3]B,/B,/ B,/B,/ D |
[V:4][G,,/G,/][G,,/G,/][G,,/G,/][G,,/G,/] D, |
[V:1]g f e |
[V:2]e d ^c |
[V:3]B A G |
[V:4]G, A, A,, |
[V:1]d d D |
[V:2]d d A, |
[V:3]F F F, |
[V:4]D, D, z |
[V:1]_E E F |
[V:2]_B, B, C |
[V:3]G, G, A, |
[V:4]D,, z2 |
[V:1]G G A |
[V:2]D D F |
[V:3]_B, B, D |
[V:4]D,, z2 |
[V:1]_B B ^c |
[V:2]G G _B |
[V:3]^C C G |
[V:4]D,, z2 |
[V:1]d d g |
[V:2]A A d |
[V:3]F F _B |
[V:4]D,, z2 |
[V:1]=f _e d |
[V:2]c _B A |
[V:3]A G =F |
[V:4]z3 |
[V:1]c c _e |
[V:2]G G _B |
[V:3]_E E G |
[V:4]z3 |
[V:1]d c _B |
[V:2]A G =F |
[V:3]=F _E D |
[V:4]z3 |
[V:1]A A z |
[V:2]_E E z |
[V:3]C C z |
[V:4]z3 |
[V:1]G G z |
[V:2]^C C z |
[V:3]_B, B, z |
[V:4]z2 D,, |
[V:1]F F z |
[V:2]D D z |
[V:3]A, A, z |
[V:4]D, z D,, |
[V:1]G G z |
[V:2]^C C z |
[V:3]_B, B, z |
[V:4]D, z D,, |
[V:1]F F D |
[V:2]D D z |
[V:3]A, A, z |
[V:4]D, z2 |
[V:1]G G E |
[V:2]D z z |
[V:3]B, z2 |
[V:4]G,, z2 |
[V:1]A A D |
[V:2]E z2 |
[V:3]C z2 |
[V:4]C, z2 |
[V:1]c c ^A |
[V:2]F z2 |
[V:3]A, z2 |
[V:4]D, z2 |
[V:1]B B z |
[V:2]G G z |
[V:3]D z2 |
[V:4]G,, z D, |
[V:1]d2 e |
[V:2]B2 ^G |
[V:3]z z B |
[V:4]G, G, E, |
[V:1]c2 c' |
[V:2]A2 e |
[V:3]E2 z |
[V:4]A, A, D, |
[V:1]f2 a |
[V:2]A2 c |
[V:3]d2 F |
[V:4]C C D, |
[V:1]g z G |
[V:2]B z2 |
[V:3]G z2 |
[V:4]B, B, z |
[V:1]^d d G |
[V:2]G z2 |
[V:3]B, z2 |
[V:4]z3 |
[V:1]e e G |
[V:2]G z2 |
[V:3]C z2 |
[V:4]z3 |
[V:1]=f f z |
[V:2]d d z |
[V:3]B, z2 |
[V:4]z3 |
[V:1]z z =f |
[V:2]z z d |
[V:3]z z G |
[V:4]z z B, |
[V:1]e f g |
[V:2]e c B |
[V:3]G A B |
[V:4]C A, G, |
[V:1]c'/c'/ c'/c'/ b |
[V:2]f/f/ f/f/ g |
[V:3]A/A/ A/A/ G |
[V:4]D,/D,/ D,/D,/ E, |
[V:1]a g f |
[V:2]e d c |
[V:3]c B A |
[V:4]C, D, D, |
[V:1]g g z |
[V:2]B B z |
[V:3]G G z |
[V:4]G, G, z |
[V:1]a a z |
[V:2]f f z |
[V:3]D D z |
[V:4]D, D, z |
[V:1]b b D |
[V:2]g g z |
[V:3]D D z |
[V:4]G,, G,, z |
[V:1]G/B/ d/f/ g/b/ |
[V:2][BD] z2 |
[V:3]G, z2 |
[V:4]G, z2 |
[V:1]d' G G |
[V:2][BD] z2 |
[V:3]G, z2 |
[V:4]G, z2 |
[V:1]G/A/ D A |
[V:2][AF] z2 |
[V:3]D z2 |
[V:4]D, z2 |
[V:1]A/B/ G D |
[V:2][BD] z2 |
[V:3]D z2 |
[V:4]G,, z2 |
[V:1]G/B/ d/f/ g/b/ |
[V:2][BD] z2 |
[V:3][DB,] z2 |
[V:4]G, z2 |
[V:1]d' E/G/ B/^d/ |
[V:2][BE] z2 |
[V:3][B,D] z2 |
[V:4]G, z2 |
[V:1]e/g/ b/g/ e/d/ |
[V:2][BE] z2 |
[V:3][EG,] z2 |
[V:4]G,, z2 |
[V:1]^c/b/ ^a/b/ f/g/ |
[V:2]^c d e |
[V:3]G F E |
[V:4]A,, z2 |
[V:1]A/a/ f/g/ e/f/ |
[V:2]A ^c d |
[V:3]F E D |
[V:4]A,, z2 |
[V:1]^d/e/ f/g/ a/b/ |
[V:2]B z2 |
[V:3]E z2 |
[V:4]G, z2 |
[V:1]A/^c/ e/g/ a/^c'/ |
[V:2]^c z2 |
[V:3][EA,] z2 |
[V:4]A, z2 |
[V:1]D z d |
[V:2]d z2 |
[V:3][FA,] z2 |
[V:4]D, z2 |
[V:1]c/A/ F/D/ C/A,/ |
[V:2][Dc] z2 |
[V:3]A, z2 |
[V:4]F, z2 |
[V:1]G, G, g |
[V:2][DB] z2 |
[V:3]B, z2 |
[V:4]G, z2 |
[V:1]e/=f/ G f |
[V:2][=fd] z2 |
[V:3]G z2 |
[V:4]B,, z2 |
[V:1]^d/e/ C e |
[V:2][ce] z2 |
[V:3]G z2 |
[V:4]C, z2 |
[V:1]^d/e/ ^g/a/ b/c'/ |
[V:2]A z2 |
[V:3]E z2 |
[V:4]C z2 |
[V:1]b/c'/ ^g/a/ b/c'/ |
[V:2]A z2 |
[V:3]E z2 |
[V:4]C z2 |
[V:1]b/c'/ a/e'/ c'/a/ |
[V:2]A z2 |
[V:3]E z2 |
[V:4]C, z2 |
[V:1]g/f/ e/d/ c/A/ |
[V:2]A z2 |
[V:3]D z2 |
[V:4]D, z2 |
[V:1]G/B/ d/f/ g/b/ |
[V:2][DB] z2 |
[V:3]G, z2 |
[V:4]G, z2 |
[V:1]d' G G |
[V:2][DB] z2 |
[V:3]G, z2 |
[V:4]G, z2 |
[V:1]G/A/ D A |
[V:2][FA] z2 |
[V:3]D z2 |
[V:4]D, z2 |
[V:1]A/B/ G E/G/ |
[V:2][DB] z2 |
[V:3]D z2 |
[V:4]G,, z2 |
[V:1]c/e/ g/e/ c'/g/ |
[V:2][cG] z2 |
[V:3]C z2 |
[V:4]E, z2 |
[V:1]e'/c'/ g' g' |
[V:2][Ec] z2 |
[V:3]G z2 |
[V:4]C, z2 |
[V:1]B,/D/ G/B/ d/g/ |
[V:2][BD] z2 |
[V:3]G z2 |
[V:4]G, z2 |
[V:1]b/g/ d/B/ d/B/ |
[V:2][BD] z2 |
[V:3]G z2 |
[V:4]G, z2 |
[V:1]A/c/ e/c/ A/G/ |
[V:2][EA] z2 |
[V:3]C z2 |
[V:4]C, z2 |
[V:1]F/e/ ^c/d/ B/=c/ |
[V:2]F G A |
[V:3]C B, A, |
[V:4]D, z2 |
[V:1]D/d/ B/c/ A/B/ |
[V:2]D F G |
[V:3]B, A, G, |
[V:4]D, z2 |
[V:1]^G/A/ B/c/ d/e/ |
[V:2]E z2 |
[V:3]C z2 |
[V:4]C, z2 |
[V:1]D/F/ A/c/ d/f/ |
[V:2][CF] z2 |
[V:3]A, z2 |
[V:4]D, z2 |
[V:1]G, z2 |]
[V:2][GB,] z2 |]
[V:3]B, z2 |]
[V:4]G,, z2 |]

